svgs/sharp-light/share-from-square.svg

<svg xmlns="http://www.w3.org/2000/svg" viewBox="0 0 576 512"><!--! Font Awesome Pro 6.6.0 by @fontawesome - https://fontawesome.com License - https://fontawesome.com/license (Commercial License) Copyright 2024 Fonticons, Inc. --><path d="M400 240l0-32-32 0-65.5 0c-58.2 0-105.9 45-110.2 102.1C173.4 291.9 160 268.9 160 240c0-70.7 57.3-128 128-128l80 0 32 0 0-32 0-48 2.7 0 128 128-128 128-2.7 0 0-48zM256 384s-23.2-19-30.1-48.8c-1.2-5.2-1.9-10.8-1.9-16.6c0-43.4 35.2-78.5 78.5-78.5l33.5 0 32 0 0 32 0 16 0 32 32 0 16 0L553.4 182.6 576 160l-22.6-22.6L416 0 400 0 368 0l0 32 0 16 0 32-32 0-48 0c-88.4 0-160 71.6-160 160c0 56.1 36.7 93.4 70.8 116c29.6 19.6 57.2 28 57.2 28zM16 32L0 32 0 48 0 496l0 16 16 0 448 0 16 0 0-16 0-96 0-16-32 0 0 16 0 80L32 480 32 64l80 0 16 0 0-32-16 0L16 32z"/></svg>

<svg xmlns="http://www.w3.org/2000/svg" viewBox="0 0 576 512"><!--! Font Awesome Pro 6.4.2 by @fontawesome - https://fontawesome.com License - https://fontawesome.com/license (Commercial License) Copyright 2023 Fonticons, Inc. --><path d="M400 240V208H368 302.5c-58.2 0-105.9 45-110.2 102.1C173.4 291.9 160 268.9 160 240c0-70.7 57.3-128 128-128h80 32V80 32h2.7l128 128-128 128H400V240zM256 384s-23.2-19-30.1-48.8c-1.2-5.2-1.9-10.8-1.9-16.6c0-43.4 35.2-78.5 78.5-78.5H336h32v32 16 32h32 16L553.4 182.6 576 160l-22.6-22.6L416 0H400 368V32 48 80H336 288c-88.4 0-160 71.6-160 160c0 56.1 36.7 93.4 70.8 116c29.6 19.6 57.2 28 57.2 28zM16 32H0V48 496v16H16 464h16V496 400 384H448v16 80H32V64h80 16V32H112 16z"/></svg>
